**harm	**harte	**timestamp	**phrase	**leadinstrument	**kern
*M3/4	*M3/4	*	*	*	*
*A-:	*A-:	*	*	*	*A-:
1r;	N	0	.	r	1r;
=1	=1	=1	=1	=1	=1
*>A_intro	*>A_intro	*>A_intro	*>A_intro	*>A_intro	*>A_intro
2.I	A-:sus2	0.511	newline	piano	2A- 2cc 2ee-
=2	=2	=2	=2	=2	=2
2.I	A-:sus2	3.057	.	piano	2A- 2cc 2ee-
=3	=3	=3	=3	=3	=3
*>B_verse	*>B_verse	*>B_verse	*>B_verse	*>B_verse	*>B_verse
2.I	A-:maj	5.603	newline	voice	2A- 2cc 2ee-
=4	=4	=4	=4	=4	=4
2.Im7d	A-:7/b7	8.025	.	voice	2a- 2cc 2ee- 2G
=5	=5	=5	=5	=5	=5
2.vi	F:min	10.446	.	voice	2F 2a- 2cc
=6	=6	=6	=6	=6	=6
2.iio7c	B-:hdim7/b5	12.868	.	voice	2b- 2dd- 2F- 2aa-
=7	=7	=7	=7	=7	=7
2.I	A-:maj	15.289	newline	voice	2A- 2cc 2ee-
=8	=8	=8	=8	=8	=8
2.Im7d	A-:7/b7	17.737	.	voice	2a- 2cc 2ee- 2G
=9	=9	=9	=9	=9	=9
2.vi	F:min	20.184	.	voice	2F 2a- 2cc
=10	=10	=10	=10	=10	=10
2.iio7c	B-:hdim7/b5	22.631	.	voice	2b- 2dd- 2F- 2aa-
=11	=11	=11	=11	=11	=11
2.I	A-:maj	25.078	newline	voice	2A- 2cc 2ee-
=12	=12	=12	=12	=12	=12
2.Im7d	A-:7/b7	27.488	.	voice	2a- 2cc 2ee- 2G
=13	=13	=13	=13	=13	=13
2.vi	F:min	29.897	.	voice	2F 2a- 2cc
=14	=14	=14	=14	=14	=14
2.iio7c	B-:hdim7/b5	32.307	.	voice	2b- 2dd- 2F- 2aa-
=15	=15	=15	=15	=15	=15
2.I	A-:maj	34.716	newline	voice	2A- 2cc 2ee-
=16	=16	=16	=16	=16	=16
2.Im7d	A-:7/b7	37.219	.	voice	2a- 2cc 2ee- 2G
=17	=17	=17	=17	=17	=17
2.vi	F:min	39.722	.	voice	2F 2a- 2cc
=18	=18	=18	=18	=18	=18
2.iio7c	B-:hdim7/b5	42.224	.	voice	2b- 2dd- 2F- 2aa-
=19	=19	=19	=19	=19	=19
2.iio7c	B-:hdim7/b5	44.727	.	voice	2b- 2dd- 2F- 2aa-
=20	=20	=20	=20	=20	=20
*>C_chorus	*>C_chorus	*>C_chorus	*>C_chorus	*>C_chorus	*>C_chorus
2.I	A-:maj	47.229	newline	voice	2A- 2cc 2ee-
=21	=21	=21	=21	=21	=21
2.Vb	E-:maj/3	49.637	.	voice	2e- 2G 2b-
=22	=22	=22	=22	=22	=22
2.-VII	G-:maj	52.045	.	voice	2G- 2b- 2dd-
=23	=23	=23	=23	=23	=23
2.IVb	D-:maj/3	54.452	.	voice	2d- 2F 2a-
=24	=24	=24	=24	=24	=24
2.ii7	B-:min7	56.86	newline	voice	2B- 2dd- 2ff 2aa-
=25	=25	=25	=25	=25	=25
2.I	A-:maj	59.262	.	voice	2A- 2cc 2ee-
=26	=26	=26	=26	=26	=26
2.V	E-:maj	61.665	.	voice	2E- 2g 2b-
=27	=27	=27	=27	=27	=27
2.Vd	E-:maj/b7	64.068	.	voice	2e- 2g 2b-
=28	=28	=28	=28	=28	=28
2.I	A-:maj	66.471	newline	voice	2A- 2cc 2ee-
=29	=29	=29	=29	=29	=29
2.Vb	E-:maj/3	68.897	.	voice	2e- 2G 2b-
=30	=30	=30	=30	=30	=30
2.-VII	G-:maj	71.324	.	voice	2G- 2b- 2dd-
=31	=31	=31	=31	=31	=31
2.IVb	D-:maj/3	73.751	.	voice	2d- 2F 2a-
=32	=32	=32	=32	=32	=32
2.ii7	B-:min7	76.177	newline	voice	2B- 2dd- 2ff 2aa-
=33	=33	=33	=33	=33	=33
2.I	A-:maj	78.567	.	voice	2A- 2cc 2ee-
=34	=34	=34	=34	=34	=34
2.V	E-:maj	80.956	.	voice	2E- 2g 2b-
=35	=35	=35	=35	=35	=35
2.Vd	E-:maj/b7	83.346	.	voice	2e- 2g 2b-
=36	=36	=36	=36	=36	=36
2.iii7	C:min7	85.736	.	voice	2C 2e- 2g 2b-
=37	=37	=37	=37	=37	=37
2.Vc	E-:sus4(b7,9)/5	88.125	.	voice	2e- 2g 2B-
=38	=38	=38	=38	=38	=38
2.I	A-:maj	90.515	newline	voice	2A- 2cc 2ee-
=39	=39	=39	=39	=39	=39
2.Vf	E-:maj/4	92.934	.	voice	2E- 2g 2b-
=40	=40	=40	=40	=40	=40
2.IV	D-:maj	95.354	.	voice	2D- 2f 2a-
=41	=41	=41	=41	=41	=41
2.V	E-:sus4(b7)	97.774	.	voice	2E- 2g 2b-
=42	=42	=42	=42	=42	=42
*>D_verse	*>D_verse	*>D_verse	*>D_verse	*>D_verse	*>D_verse
2.I	A-:maj	100.194	newline	voice	2A- 2cc 2ee-
=43	=43	=43	=43	=43	=43
2.Vf	E-:maj/4	102.586	.	voice	2E- 2g 2b-
=44	=44	=44	=44	=44	=44
2.IVc	D-:maj/5	104.978	.	voice	2d- 2f 2A-
=45	=45	=45	=45	=45	=45
2.V	E-:sus4(b7)	107.37	.	voice	2E- 2g 2b-
=46	=46	=46	=46	=46	=46
2.I	A-:maj	109.762	newline	voice	2A- 2cc 2ee-
=47	=47	=47	=47	=47	=47
2.Vf	E-:maj/4	112.143	.	voice	2E- 2g 2b-
=48	=48	=48	=48	=48	=48
2.IVc	D-:maj/5	114.524	.	voice	2d- 2f 2A-
=49	=49	=49	=49	=49	=49
2.V	E-:sus4(b7)	116.906	.	voice	2E- 2g 2b-
=50	=50	=50	=50	=50	=50
2.I	A-:maj	119.287	newline	voice	2A- 2cc 2ee-
=51	=51	=51	=51	=51	=51
2.Vf	E-:maj/4	121.673	.	voice	2E- 2g 2b-
=52	=52	=52	=52	=52	=52
2.IVc	D-:maj/5	124.058	.	voice	2d- 2f 2A-
=53	=53	=53	=53	=53	=53
2.V	E-:sus4(b7)	126.444	.	voice	2E- 2g 2b-
=54	=54	=54	=54	=54	=54
2.I	A-:maj	128.829	newline	voice	2A- 2cc 2ee-
=55	=55	=55	=55	=55	=55
2.Vf	E-:maj/4	131.205	.	voice	2E- 2g 2b-
=56	=56	=56	=56	=56	=56
2.IVc	D-:maj/5	133.581	.	voice	2d- 2f 2A-
=57	=57	=57	=57	=57	=57
2.V	E-:sus4(b7)	135.957	.	voice	2E- 2g 2b-
=58	=58	=58	=58	=58	=58
*>D2_instrumental	*>D2_instrumental	*>D2_instrumental	*>D2_instrumental	*>D2_instrumental	*>D2_instrumental
2.I	A-:maj	138.333	newline	voice guitar	2A- 2cc 2ee-
=59	=59	=59	=59	=59	=59
2.Vf	E-:maj/4	140.733	.	voice guitar	2E- 2g 2b-
=60	=60	=60	=60	=60	=60
2.IVc	D-:maj/5	143.133	.	voice guitar	2d- 2f 2A-
=61	=61	=61	=61	=61	=61
2.V	E-:sus4(b7)	145.533	.	voice guitar	2E- 2g 2b-
=62	=62	=62	=62	=62	=62
2.I	A-:maj	147.933	newline	voice guitar	2A- 2cc 2ee-
=63	=63	=63	=63	=63	=63
2.Vf	E-:maj/4	150.292	.	voice guitar	2E- 2g 2b-
=64	=64	=64	=64	=64	=64
2.IVc	D-:maj/5	152.65	.	voice guitar	2d- 2f 2A-
=65	=65	=65	=65	=65	=65
2.V	E-:sus4(b7)	155.009	.	voice guitar	2E- 2g 2b-
=66	=66	=66	=66	=66	=66
2.I	A-:maj	157.368	newline	voice	2A- 2cc 2ee-
=67	=67	=67	=67	=67	=67
2.Vf	E-:maj/4	159.719	.	voice	2E- 2g 2b-
=68	=68	=68	=68	=68	=68
2.IVc	D-:maj/5	162.071	.	voice	2d- 2f 2A-
=69	=69	=69	=69	=69	=69
2.V	E-:sus4(b7)	164.423	.	voice	2E- 2g 2b-
=70	=70	=70	=70	=70	=70
2.I	A-:maj	166.775	newline	voice	2A- 2cc 2ee-
=71	=71	=71	=71	=71	=71
2.Vf	E-:maj/4	169.186	.	voice	2E- 2g 2b-
=72	=72	=72	=72	=72	=72
2.IVc	D-:maj/5	171.597	.	voice	2d- 2f 2A-
=73	=73	=73	=73	=73	=73
2.IVc	D-:maj/5	174.008	.	voice	2d- 2f 2A-
=74	=74	=74	=74	=74	=74
2.IVc	D-:maj/5	176.419	.	voice	2d- 2f 2A-
=75	=75	=75	=75	=75	=75
*>C2_chorus	*>C2_chorus	*>C2_chorus	*>C2_chorus	*>C2_chorus	*>C2_chorus
2.I	A-:maj	178.83	newline	voice	2A- 2cc 2ee-
=76	=76	=76	=76	=76	=76
2.Vb	E-:maj/3	181.204	.	voice	2e- 2G 2b-
=77	=77	=77	=77	=77	=77
2.-VII	G-:maj	183.579	.	voice	2G- 2b- 2dd-
=78	=78	=78	=78	=78	=78
2.IVb	D-:maj/3	185.953	.	voice	2d- 2F 2a-
=79	=79	=79	=79	=79	=79
2.ii7	B-:min7	188.328	newline	voice	2B- 2dd- 2ff 2aa-
=80	=80	=80	=80	=80	=80
2.I	A-:maj	190.682	.	voice	2A- 2cc 2ee-
=81	=81	=81	=81	=81	=81
2.V	E-:maj	193.035	.	voice	2E- 2g 2b-
=82	=82	=82	=82	=82	=82
2.Vd	E-:maj/b7	195.389	.	voice	2e- 2g 2b-
=83	=83	=83	=83	=83	=83
2.iii7	C:min7	197.742	newline	voice	2C 2e- 2g 2b-
=84	=84	=84	=84	=84	=84
2.Vc	E-:sus4(b7,9)/5	200.641	.	voice	2e- 2g 2B-
=85	=85	=85	=85	=85	=85
2.I	A-:maj	203.54	newline	voice	2A- 2cc 2ee-
1r;	N	216.22	.	r	1r;
1r;	N	219.716	.	r	1r;
*-	*-	*-	*-	*-	*-
!!!OTL: Three Times A Lady
!!!COC: Commodores
!!!BillboardChartDate: 1978/09/02
!!!BillboardPeak: 1
!!!BillboardWeeksOnChart: 20
!!!SampleTargetRank: 1
!!!SampleActualRank: 2
!!!SampleID#: 1201
!!!RDF**harmony: **recip + pitch class of root + harmonic quality
!!!RDF**harte: Chris Harte's syntax, used by MIREX
!!!RDF**phrase: newline = linebreak in original McGill transcription
!!!RDF**timestamp: McGill audio timestamp in seconds
!!!RDF**leadinstrument: original McGill primary instrumentation annotation
!!!RDT: 2017/01/12/
!!!ENC: Nathaniel Condit-Schultz
!!!EST: Awating manual error checking and editing.
